assets/icons/bowtie/uE6B2-connect-to-feed.svg

<svg xmlns="http://www.w3.org/2000/svg" viewBox="0 0 448 448"><path d="M256 384c0 17.672-14.328 32-32 32s-32-14.328-32-32 14.328-32 32-32 32 14.328 32 32zm-96-288v80c0 38.63-27.53 70.947-64 78.38v161.62h-32v-161.62c-36.47-7.432-64-39.75-64-78.38v-80h32v-64h32v64h32v-64h32v64h32zm-32 32h-96v48c0 26.47 21.53 48 48 48s48-21.53 48-48v-48zm64 18.055v32.334c128 15.721 224 116.141 224 237.611h32c0-139.125-96-254.033-256-269.945zm0 94.756v32.81c71.803 8.08 128 68.456 128 142.384h32c0-91.63-70.445-167.066-160-175.19z"/></svg>

<svg xmlns="http://www.w3.org/2000/svg" viewBox="0 0 448 448"><path d="M256 384c0 17.672-14.328 32-32 32s-32-14.328-32-32 14.328-32 32-32 32 14.328 32 32zM160 96v80c0 38.63-27.53 70.947-64 78.38V416H64V254.38C27.53 246.948 0 214.63 0 176V96h32V32h32v64h32V32h32v64h32zm-32 32H32v48c0 26.47 21.53 48 48 48s48-21.53 48-48v-48zm64 18.055v32.334C320 194.11 416 294.53 416 416h32c0-139.125-96-254.033-256-269.945zm0 94.756v32.81c71.803 8.08 128 68.456 128 142.384h32c0-91.63-70.445-167.066-160-175.19z"/></svg>
